img/logo/Default.svg

<?xml version="1.0" encoding="UTF-8" standalone="no"?>
<svg
   width="23"
   height="21"
   viewBox="0 0 23 21"
   fill="none"
   version="1.1"
   id="svg1"
   sodipodi:docname="Default.svg"
   inkscape:version="1.3 (0e150ed6c4, 2023-07-21)"
   xmlns:inkscape="http://www.inkscape.org/namespaces/inkscape"
   xmlns:sodipodi="http://sodipodi.sourceforge.net/DTD/sodipodi-0.dtd"
   xmlns="http://www.w3.org/2000/svg"
   xmlns:svg="http://www.w3.org/2000/svg">
  <defs
     id="defs1" />
  <sodipodi:namedview
     id="namedview1"
     pagecolor="#ffffff"
     bordercolor="#000000"
     borderopacity="0.25"
     inkscape:showpageshadow="2"
     inkscape:pageopacity="0.0"
     inkscape:pagecheckerboard="0"
     inkscape:deskcolor="#d1d1d1"
     inkscape:zoom="52.904762"
     inkscape:cx="11.492349"
     inkscape:cy="10.5"
     inkscape:window-width="2560"
     inkscape:window-height="1346"
     inkscape:window-x="-11"
     inkscape:window-y="-11"
     inkscape:window-maximized="1"
     inkscape:current-layer="svg1" />
  <path
     d="m 2.58455,10.8495 8.31415,9.3653 c 0,10e-5 10e-5,10e-5 10e-5,10e-5 0.3382,0.3806 0.8605,0.3806 1.1987,0 l 10e-5,-10e-5 8.3143,-9.3655 10e-5,-10e-5 m 0,0 C 22.800897,8.4603029 22.367085,3.7465722 20.0243,1.80213 m 0.07531,0.075348 C 18.111121,-0.15055011 14.741202,0.13342811 12.7395,2.386608 m -0.0189,0.018902 -3e-4,2.5e-4 -0.8464,0.95156 -0.3736,0.41995 -0.3736,-0.41995 -0.8465,-0.95156 -5e-4,-6.2e-4 C 8.28247,0.152585 5.09737,-0.169649 2.9764,1.80201 0.482212,4.1245 0.34331198,8.3249044 2.58455,10.8495"
     stroke="#101010"
     id="path1"
     sodipodi:nodetypes="cccccccccccccccccccc" />
</svg>

<svg width="23" height="21" viewBox="0 0 23 21" fill="none" xmlns="http://www.w3.org/2000/svg">
<path d="M12.7206 2.40551L12.7203 2.40576L11.8739 3.35732L11.5003 3.77727L11.1267 3.35732L10.2802 2.40576L10.2797 2.40514C8.28247 0.152585 5.09737 -0.169649 2.9764 1.80201C0.482212 4.1245 0.344816 8.32357 2.58455 10.8495L10.8987 20.2148C10.8987 20.2149 10.8988 20.2149 10.8988 20.2149C11.237 20.5955 11.7593 20.5955 12.0975 20.2149C12.0975 20.2149 12.0975 20.2149 12.0976 20.2148L20.4119 10.8493L20.412 10.8492C22.6556 8.32335 22.5183 4.12461 20.0243 1.80213L12.7206 2.40551ZM12.7206 2.40551C14.7223 0.15233 17.9032 -0.169452 20.024 1.80187L12.7206 2.40551Z" stroke="#101010"/>
</svg>
